icons/notes.svg

<svg xmlns="http://www.w3.org/2000/svg" viewBox="0 0 24 24" fill="currentColor">
  <path d="m18.9877 3.31665-6.8054-1.60126c-1.923-.4778-3.82541.65043-4.42672 2.47895H5.90576c-2.11421 0-3.75 1.63578-3.75 3.75V18.6443c0 2.1143 1.63579 3.75 3.75 3.75h7.00004c1.0768 0 2.182-.4689 2.8778-1.2977 1.6146-.0844 2.997-1.2841 3.4433-2.8462l.0044-.0153 2.5029-10.41238c.502-2.01598-.7614-4.00977-2.7465-4.50607Zm-3.23 16.27765c.8948-.0744 1.7356-.7582 2.0228-1.7417l2.4976-10.39018c.2953-1.18129-.4387-2.38396-1.6496-2.68931L11.8238 3.172c-1.1828-.29571-2.38704.44057-2.69047 1.6542l-.09997.39999-.11694-.02923-2.38299 9.92924c-.29533 1.1813.43871 2.384 1.64957 2.6894l7.0023 1.6476.1301.1301c.0075.0003.0164.0006.0271.0007.0181.0003.0373.0003.0633.0003h.3519ZM3.65576 7.94434c0-1.28579.96422-2.25 2.25-2.25h1.3487L5.07727 14.7661c-.50187 2.0159.76146 4.0096 2.74661 4.5059l6.03862 1.4209c-.2929.1279-.6214.2014-.9567.2014H5.90576c-1.28578 0-2.25-.9642-2.25-2.25V7.94434Z"/>
</svg>

<svg width="24" height="24" viewBox="0 0 24 24" fill="none" xmlns="http://www.w3.org/2000/svg">
<path fill-rule="evenodd" clip-rule="evenodd" d="M18.9877 3.31665L12.1823 1.71539C10.2593 1.23759 8.35689 2.36582 7.75558 4.19434H5.90576C3.79155 4.19434 2.15576 5.83012 2.15576 7.94434V18.6443C2.15576 20.7586 3.79155 22.3943 5.90576 22.3943H12.9058C13.9826 22.3943 15.0878 21.9254 15.7836 21.0966C17.3982 21.0122 18.7806 19.8125 19.2269 18.2504L19.2313 18.2351L21.7342 7.82272C22.2362 5.80674 20.9728 3.81295 18.9877 3.31665ZM15.7577 19.5943C16.6525 19.5199 17.4933 18.8361 17.7805 17.8526L20.2781 7.46242C20.5734 6.28113 19.8394 5.07846 18.6285 4.77311L11.8238 3.172C10.641 2.87629 9.43676 3.61257 9.13333 4.8262L9.03336 5.22619L8.91642 5.19696L6.53343 15.1262C6.2381 16.3075 6.97214 17.5102 8.183 17.8156L15.1853 19.4632L15.3154 19.5933C15.3229 19.5936 15.3318 19.5939 15.3425 19.594C15.3606 19.5943 15.3798 19.5943 15.4058 19.5943H15.7577ZM3.65576 7.94434C3.65576 6.65855 4.61998 5.69434 5.90576 5.69434H7.25446L5.07727 14.7661C4.5754 16.782 5.83873 18.7757 7.82388 19.272L13.8625 20.6929C13.5696 20.8208 13.2411 20.8943 12.9058 20.8943H5.90576C4.61998 20.8943 3.65576 19.9301 3.65576 18.6443V7.94434Z" fill="black"/>
</svg>
